src/icons/arrow-right.svg

<svg viewBox="0 0 24 24" fill="none" xmlns="http://www.w3.org/2000/svg">
<path d="M16.6041 12C16.5951 11.6843 16.4778 11.4138 16.2343 11.1702L9.21738 4.30665C9.00994 4.10823 8.76642 4 8.46879 4C7.8645 4 7.39551 4.469 7.39551 5.07328C7.39551 5.36189 7.51276 5.63247 7.7202 5.83991L14.0336 12L7.7202 18.1601C7.51276 18.3675 7.39551 18.6291 7.39551 18.9267C7.39551 19.531 7.8645 20 8.46879 20C8.7574 20 9.00994 19.8918 9.21738 19.6933L16.2343 12.8207C16.4868 12.5862 16.6041 12.3157 16.6041 12Z" fill="currentColor"/>
</svg>

<svg viewBox="0 0 24 24" fill="none" xmlns="http://www.w3.org/2000/svg"><path d="M16.604 12a1.175 1.175 0 0 0-.37-.83L9.217 4.307A1.042 1.042 0 0 0 8.47 4c-.604 0-1.073.469-1.073 1.073 0 .289.117.56.324.767L14.034 12 7.72 18.16a1.064 1.064 0 0 0-.324.767c0 .604.468 1.073 1.073 1.073.288 0 .54-.108.748-.307l7.017-6.872c.253-.235.37-.505.37-.821z" fill="currentColor"/></svg>
